X: 24461
T: Lucky In Love
R: reel
M: 4/4
K: Gmajor
g3d BGGG|BGdB cAAA|g3d BGAB|1 ceAc BGBd:|2 ceAc BGGA||
BGdG eGdG|BGdB cAAA|BGdG eGdB|ceAc BGGA|
BGdG eGdG|BGdB cAAA|GABd eaag|fdef gaba||

